app/client/src/assets/icons/blueprintjs/20px/data-connection.svg

<?xml version="1.0" encoding="UTF-8"?>
<svg width="20px" height="20px" viewBox="0 0 20 20" version="1.1" xmlns="http://www.w3.org/2000/svg" xmlns:xlink="http://www.w3.org/1999/xlink">
    <title>bp3-data-connection</title>
    <g id="bp3-data-connection" stroke="none" stroke-width="1" fill="none" fill-rule="evenodd">
        <path d="M2,11.9 C2.93468865,12.5742236 4.3389668,13.1169578 6.02286947,13.4360955 C6.00757687,13.6215864 6,13.8099083 6,14 C6,16.5467063 7.359945,18.77577 9.39321594,20.00055 C5.40462513,19.9811517 2.16168117,18.9170543 2.00586153,17.5992952 L2,17.5 L2,11.9 Z M13,8 C16.315,8 19,10.685 19,14 C19,17.315 16.315,20 13,20 C9.685,20 7,17.315 7,14 C7,10.685 9.685,8 13,8 Z M14,9 L10,15 L12.5,15 L12,19 L16,13 L13.5,13 L14,9 Z M16.9995124,4.4 L16.9999712,8.2549186 C15.8661123,7.46390447 14.487116,7 12.9997725,7 C9.73921075,7 6.99933978,9.22941453 6.22127541,12.2470809 C3.81335585,11.8555478 2.12414114,11.0452198 2.00655427,10.1049899 L2,10 L2,4.4 C3.52495043,5.5 6.29986022,6.25 9.4997562,6.25 C12.6996522,6.25 15.474562,5.5 16.9995124,4.4 Z M9.4997562,0 C13.6371217,0 16.9995124,1.125 16.9995124,2.5 C16.9995124,3.875 13.6371217,5 9.4997562,5 C5.3498911,5 2,3.875 2,2.5 C2,1.125 5.3498911,0 9.4997562,0 Z" id="path-1"></path>
    </g>
</svg>

<svg xmlns="http://www.w3.org/2000/svg" width="20" height="20"><path fill-rule="evenodd" d="M2 11.9c.935.674 2.339 1.217 4.023 1.536A6.996 6.996 0 0 0 9.393 20c-3.988-.019-7.231-1.083-7.387-2.4L2 17.5v-5.6ZM13 8c3.315 0 6 2.685 6 6s-2.685 6-6 6-6-2.685-6-6 2.685-6 6-6Zm1 1-4 6h2.5l-.5 4 4-6h-2.5l.5-4Zm3-4.6v3.855a7.003 7.003 0 0 0-10.779 3.992c-2.408-.391-4.097-1.202-4.214-2.142L2 10V4.4c1.525 1.1 4.3 1.85 7.5 1.85S15.475 5.5 17 4.4ZM9.5 0C13.637 0 17 1.125 17 2.5S13.637 5 9.5 5C5.35 5 2 3.875 2 2.5S5.35 0 9.5 0Z"/></svg>
